!!!!SEGMENT: pl-wn--mus-iii-601--004-001_janiewicz-feliks--ive-trio-allegro-moderato.krn
!!!cenid: 17xx:2396
!!!COM: Janiewicz, Feliks
!!!COM-rismid: pe30011012
!!!CDT:
!!!CNT:
!!!OPR: Ive Trio
!!!OTL: Allegro moderato
!!!OMV: 001
!!!PDT:
!!!AGN:
!!!SMS-siglum: PL-Wn
!!!SMS-shelfmark: Mus.III.601
!!!SMS-shelfwork: 004-001 M
!!!SMS-variant:
!!!SMS-altvar:
!!!NIFC-rismid: 990069598
!!!URL-scan: https://polona.pl/item/six-trios-pour-deux-violons-basse,MTAxMDA3MzY2/0/#item
!!!ONB-nifc: UWAGA: źródło zawiera 6 Trio na 2 skrzypiec i wiolonczelę. Violino Primo (od skanu 3), Violino Secondo (od skanu 37), Basso (od skanu 61). Basso to partia wiolonczeli. Części Ie Trio: 1. Allegro moderato, 2. Adagio, 3. Polonese/Allegretto
!!!AIN: 1 cello 2 violn
!!!key: B-
**kern	**dynam	**kern	**dynam	**kern	**dynam
*part3	*part3	*part2	*part2	*part1	*part1
*staff3	*	*staff2	*	*staff1	*
*I"BASSO	*	*I"VIOLINO SECONDO	*	*I"VIOLINO PRIMO	*
*I'vlc	*	*I'vl II	*	*I'vl I	*
*ICstr	*	*ICstr	*	*ICstr	*
*Icello	*	*Ivioln	*	*Ivioln	*
*clefF4	*	*clefG2	*	*clefG2	*
*k[b-e-]	*	*k[b-e-]	*	*k[b-e-]	*
*B-:	*	*B-:	*	*B-:	*
*M2/4	*	*M2/4	*	*M2/4	*
!LO:TX:a:B:t=Allegro Mod.|t|o	!	!	!	!LO:TX:B:t=All|o. Moderato	!
8ryy	.	8ryy	.	8ryy	.
!	!	!LO:TX:a:B:t=Allegro Mod.|t|o	!	!LO:TUP:a:problem:klamra łukowa	!
8r	.	8r	.	24ff\LL	p
.	.	.	.	24gg\	.
.	.	.	.	24ff\JJ	.
=1	=1	=1	=1	=1	=1
8r	.	8r	.	8bb-\	.
!	!	!LO:TUP:b:problem:klamra łukowa	!	!	!
8BB-'/L	p	24f/LL	p	8r	.
.	.	24g/	.	.	.
.	.	24f/JJ	.	.	.
8B-'\J	.	8d/	.	8r	.
8r	.	8r	.	(24ff\LL	.
.	.	.	.	24gg\	.
.	.	.	.	24ff\JJ	.
=2	=2	=2	=2	=2	=2
8r	.	8r	.	8bb-\)	.
!	!	!LO:TUP:b:problem:klamra łukowa	!	!	!
8BB-'/L	.	24f/LL	.	8r	.
.	.	24g/	.	.	.
.	.	24f/JJ	.	.	.
8B-'\J	.	8d/	.	8r	.
8r	.	8r	.	(24ff\LL	.
.	.	.	.	24gg\	.
.	.	.	.	24ff\JJ	.
=3	=3	=3	=3	=3	=3
!	!	!LO:TX:t=P:problem: problem wyświetlania VHV - mimo zakodowania słownie cres Verovio wyświetla graficznie	!	!	!
!	!	!LO:TUP:b:problem:klamra łukowa	!LO:HP:b:t=cres	!	!
8r	.	24f/LL	<	8bb-\L)	.
.	.	24g/	.	.	.
.	.	24f/J	.	.	.
*	*	*	*	*Xtuplet	*
!	!	!	!	!	!LO:HP:b:t=cres
8BB-'/	.	8d/J	.	(24ff\L	<
.	.	.	.	24gg\	.
.	.	.	.	24ff\JJ	.
*	*	*Xtuplet	*	*	*
!	!	!LO:TUP:b:problem:klamra łukowa	!	!	!
8r	.	24f/LL	.	8bb-\L)	.
.	.	24g/	.	.	.
.	.	24f/J	.	.	.
!	!LO:HP:b:t=cres	!	!	!LO:TUP:a:problem:klamra łukowa 	!
8B-'\	<	8d/J	.	(24ff\L	.
.	.	.	.	24gg\	.
.	.	.	.	24ff\JJ	.
=4	=4	=4	=4	=4	=4
!	!	!	!	!	!LO:DY:b:t=F
8BB-'/	.	8f/	.	24bb-\LL)	f
.	.	.	.	24aa\	.
.	.	.	.	24gg\	.
8r	.	8r	.	24ff\	.
.	.	.	.	24ee-\	.
.	.	.	.	24dd\JJ	.
4r	.	4r	.	24gg\LL	.
.	.	.	.	24ff\	.
.	.	.	.	24ee-\	.
.	.	.	.	24dd\	.
.	.	.	.	24cc\	.
.	.	.	.	24b-\JJ	.
=5	=5	=5	=5	=5	=5
!LO:TX:a:t=I	!	!LO:TX:a:t=I	!	!	!
2r	.	2r	.	24ee-\LL	.
.	.	.	.	24dd\	.
.	.	.	.	24cc\	.
.	.	.	.	24b-\	.
.	.	.	.	24a\	.
.	.	.	.	24g\JJ	.
.	.	.	.	24f/LL	.
.	.	.	.	24g/	.
.	.	.	.	24f/	.
.	.	.	.	24e-/	.
.	.	.	.	24d/	.
.	.	.	.	24c/JJ	.
!	!	!	!	!LO:LB:g=original	!
=6	=6	=6	=6	=6	=6
4BB-;/	<	4dt;/ 4f	<[	4B-T;/	.
4r	[ > ]]	8r	>]	8r	.
*	*	*	*	*tuplet	*
!	!	!	!	!LO:TUP:a:problem:klamra łukowa	!
.	.	8r	.	24aa\LL	p
.	.	.	.	24bb-\	.
.	.	.	.	24aa\JJ	.
=7	=7	=7	=7	=7	=7
8r	.	8r	]	8ccc\	.
*	*	*tuplet	*	*	*
!	!	!LO:TUP:b:problem:klamra łukowa	!	!	!
8FF'/L	p	24f/LL	p	8r	.
.	.	24g/	.	.	.
.	.	24f/JJ	.	.	.
8F'\J	.	8c/	.	8r	.
*	*	*	*	*Xtuplet	*
!	!	!	!	!LO:TUP:a:problem:klamra łukowa	!
8r	.	8r	.	24aa\LL	.
.	.	.	.	24bb-\	.
.	.	.	.	24aa\JJ	.
!	!	!LO:LB:g=original	!	!	!
=8	=8	=8	=8	=8	=8
8r	.	8r	.	8ccc\	.
!	!	!LO:TUP:b:problem:klamra łukowa	!	!	!
8FF'/L	.	24f/LL	.	8r	.
.	.	24g/	.	.	.
.	.	24f/JJ	.	.	.
8F'\J	.	8c/	.	8r	.
8r	.	8r	.	(24aa\LL	.
.	.	.	.	24bb-\	.
.	.	.	.	24aa\JJ	.
=9	=9	=9	=9	=9	=9
*	*	*Xtuplet	*	*	*
!	!	!LO:TX:t=P:problem: problem wyświetlania VHV - mimo zakodowania słownie cres Verovio wyświetla graficznie	!	!	!
!	!	!LO:TUP:b:problem:klamra łukowa	!LO:HP:b:t=cres	!	!
8r	.	24f/LL	<	8ccc\L)	.
.	.	24g/	.	.	.
.	.	24f/J	.	.	.
!	!	!	!	!	!LO:HP:b:t=cres
8FF'/	.	8c/J	.	(24aa\L	<
.	.	.	.	24bb-\	.
.	.	.	.	24aa\JJ	.
!	!	!LO:TUP:b:problem:klamra łukowa	!	!	!
8r	.	24f/LL	.	8ccc\L)	.
.	.	24g/	.	.	.
.	.	24f/J	.	.	.
!LO:TX:t=P:problem: problem wyświetlania VHV - mimo zakodowania słownie cres Verovio wyświetla graficznie	!LO:HP:b:t=cres	!	!	!	!
8F'\	<	8c/J	.	(24aa\L	.
.	.	.	.	24bb-\	.
.	.	.	.	24aa\JJ	.
=10	=10	=10	=10	=10	=10
!	!	!	!	!	!LO:DY:b:t=F
8FF/	.	8e-/	.	24ccc\LL)	f
.	.	.	.	24aa\	.
.	.	.	.	24ccc\	.
8r	.	8r	.	24eee-\	.
.	.	.	.	24ddd\	.
.	.	.	.	24ccc\JJ	.
4r	.	4r	.	24bb-\LL	.
.	.	.	.	24aa\	.
.	.	.	.	24ccc\	.
.	.	.	.	24bb-\	.
.	.	.	.	24aa\	.
.	.	.	.	24gg\JJ	.
!LO:LB:g=original	!	!	!	!	!
=11	=11	=11	=11	=11	=11
!LO:TX:a:t=I	!	!LO:TX:a:t=I	!	!	!
2r	.	2r	.	24ff\LL	.
.	.	.	.	24een\	.
.	.	.	.	24gg\	.
.	.	.	.	24ff\	.
.	.	.	.	24ee\	.
.	.	.	.	24gg\JJ	.
.	.	.	.	24ff\LL	.
.	.	.	.	24ee\	.
.	.	.	.	24gg\	.
.	.	.	.	24ff\	.
.	.	.	.	24ee\	.
.	.	.	.	24gg\JJ	.
=12	=12	=12	=12	=12	=12
.	.	8qqc/	.	.	.
4F;\	<[	4e-;/ 4a	< [	4ffT;\	.
4r	>]	4r	> ]]	4r	.
!	!	!	!	!LO:LB:g=original	!
=13	=13	=13	=13	=13	=13
*	*	*	*	*^	*
*	*	*	*	*	*cue	*
!	!	!	!	!LO:TX:a:t=I	!	!
8BB-/	p	(16d/LL	p	2r	16B-\LL	.
.	.	16f/)	.	.	16f\	.
8r	.	16f'/	.	.	16d\	.
.	.	16f'/JJ	.	.	16f\JJ	.
8B-\	.	(16d/LL	.	.	16B-\LL	.
.	.	16f/)	.	.	16f\	.
8r	.	16f'/	.	.	16d\	.
.	.	16f'/JJ	.	.	16f\JJ	.
*	*	*	*	*	*Xcue	*
*	*	*	*	*v	*v	*
=14	=14	=14	=14	=14	=14
!	!LO:HP:b:t=cres	!	!LO:HP:b:t=cres	!	!
8BB-/	<	(16d/LL	<	4r	.
.	.	16f/)	.	.	.
8r	.	16f'/	.	.	.
.	.	16f'/JJ	.	.	.
8B-\	.	(16d/LL	.	8r	.
.	.	16f/)	.	.	.
!	!	!	!	!	!LO:DY:b:t=F
8r	.	16f'/	.	[8bb-\	f
.	.	16f'/JJ	.	.	.
=15	=15	=15	=15	=15	=15
!LO:TX:b:i:t=rinf	!	!	!LO:DY:b:t=F	!	!
8B-\L	.	(16e-/LL	f	16bb-\KL]	.
.	.	16g-X/)	.	8aa\	.
8B-\	.	16g-'/	.	.	.
.	.	16g-'/JJ	.	8aa\	.
8B-\	.	(16e-/LL	.	.	.
.	.	16g-/)	.	8aa\	.
8B-\J	.	16g-'/	.	.	.
.	.	16g-'/JJ	.	16aa\Jk	.
=16	=16	=16	=16	=16	=16
*tremolo	*	*	*	*	*
!	!	!	!	!LO:TUP:a:problem:klamra łukowa	!
8B-\L	.	(16e-/LL	.	24aa\LL	.
.	.	.	.	24ccc\	.
.	.	16g-X/)	.	.	.
.	.	.	.	24aa\	.
8B-\	.	16g-'/	.	(24eee-X\	.
.	.	.	.	24ccc\)	.
.	.	16g-'/JJ	.	.	.
.	.	.	.	24aa`\JJ	.
8B-\	.	(16e-/LL	.	24eee-\LL	.
.	.	.	.	24ccc\	.
.	.	16g-/)	.	.	.
.	.	.	.	24aa\	.
8B-\J	.	16g-'/	.	24eee-\	.
.	.	.	.	24ccc\	.
.	.	16g-'/JJ	.	.	.
.	.	.	.	24aa\JJ	.
*Xtremolo	*	*	*	*	*
!	!	!LO:LB:g=original	!	!	!
=17	=17	=17	=17	=17	=17
8BB-/	p	(16d/LL	p	4bb-\	.
.	.	16f/)	.	.	.
8r	.	16f'/	.	.	.
.	.	16f'/JJ	.	.	.
8B-\	.	(16d/LL	.	4r	.
.	.	16f/)	.	.	.
8r	.	16f'/	.	.	.
.	.	16f'/JJ	.	.	.
=18	=18	=18	=18	=18	=18
8BB-/	.	(16d/LL	.	8r	.
.	.	16f/)	.	.	.
8r	.	16f'/	.	4r	.
.	.	16f'/JJ	.	.	.
8B-\	.	(16d/LL	.	.	.
.	.	16f/)	.	.	.
8r	.	16f'/	.	[8bb-\	.
.	.	16f'/JJ	.	.	.
=19	=19	=19	=19	=19	=19
!LO:TX:b:i:t=rinf	!	!	!LO:DY:b:t=F	!	!
8BB-/L	.	(16e-/LL	f	16bb-\KL]	.
.	.	16g-X/)	.	8aa\	.
8B-\	.	16g-'/	.	.	.
.	.	16g-'/JJ	.	8aa\	.
8B-\	.	(16e-/LL	.	.	.
.	.	16g-/)	.	8aa\	.
8B-\J	.	16g-'/	.	.	.
.	.	16g-'/JJ	.	[16aa\Jk	.
=20	=20	=20	=20	=20	=20
*tremolo	*	*	*	*	*
8B-\L	.	(16e-/LL	.	24aa\LL]	.
.	.	.	.	24ccc\	.
.	.	16g-X/)	.	.	.
.	.	.	.	24aa\	.
8B-\	.	16g-'/	.	24eee-\	.
.	.	.	.	24ccc\	.
.	.	16g-'/JJ	.	.	.
.	.	.	.	24aa\JJ	.
8B-\	.	(16e-/LL	.	24eee-\LL	.
.	.	.	.	24ccc\	.
.	.	16g-/)	.	.	.
.	.	.	.	24aa\	.
8B-\J	.	16g-'/	.	24eee-\	.
.	.	.	.	24ccc\	.
.	.	16g-'/JJ	.	.	.
.	.	.	.	24aa\JJ	.
*Xtremolo	*	*	*	*	*
!	!	!	!	!LO:LB:g=original	!
=21	=21	=21	=21	=21	=21
8B-'\	.	8d'/L	.	24bb-\LL	.
.	.	.	.	24aa\	.
.	.	.	.	24bb-\	.
8r	.	8f'/	.	24ddd\	.
.	.	.	.	24ccc#X\	.
.	.	.	.	24ddd\JJ	.
8A'\L	.	8c'/	.	24ff\LL	.
.	.	.	.	24gg\	.
.	.	.	.	24ff\	.
8F'\J	.	8e-'/J	.	24aa\	.
.	.	.	.	24bb-\	.
.	.	.	.	24aa\JJ	.
=22	=22	=22	=22	=22	=22
8BB-'/	.	8d'/L	.	24bb-\LL	.
.	.	.	.	24aa\	.
.	.	.	.	24bb-\	.
8r	.	8f'/	.	24ddd\	.
.	.	.	.	24ccc#X\	.
.	.	.	.	24ddd\JJ	.
8AA'/L	.	8c'/	.	24ff\LL	.
.	.	.	.	24gg\	.
.	.	.	.	24ff\	.
8FF'/J	.	8e-'/J	.	24aa\	.
.	.	.	.	24bb-\	.
.	.	.	.	24aa\JJ	.
=23	=23	=23	=23	=23	=23
!	!LO:DY:b:t=F	!	!LO:DY:b:t=F	!	!
8BB-/L	f	8d'/L	f	24bb-'\LL	.
.	.	.	.	(24aa\	.
.	.	.	.	24bb-\)	.
8F/	.	8f'/	.	24ff`\	.
.	.	.	.	(24een\	.
.	.	.	.	24ff\JJ)	.
8D/	.	8d'/	.	24dd\LL	.
.	.	.	.	24cc#X\	.
.	.	.	.	24dd\	.
8BB-/J	.	8B-'/J	.	24b-\	.
.	.	.	.	24a\	.
.	.	.	.	24b-\JJ	.
=24	=24	=24	=24	=24	=24
8FF/	.	8A'/	.	(16f`\LL	.
.	.	.	.	32g\L	.
.	.	.	.	32a\	.
8r	.	8r	.	32b-\	.
.	.	.	.	32ccn\	.
.	.	.	.	32dd\	.
.	.	.	.	32een\JJJ)	.
8F\	.	8c/ 8a	.	(16ff`\LL	.
.	.	.	.	32gg\L	.
.	.	.	.	32aa\	.
8r	.	8r	.	32bb-\	.
.	.	.	.	32ccc\	.
.	.	.	.	32ddd\	.
.	.	.	.	(32eee-\JJJ)	.
!LO:LB:g=original	!	!LO:LB:g=original	!	!LO:LB:g=original	!
=25	=25	=25	=25	=25	=25
8F\	.	8c'/ 8a	.	8fff\)	.
8r	.	8r	.	8r	.
4r	.	4r	.	8r	.
.	.	.	.	(24ccc\LL	p
.	.	.	.	24bbn\	.
.	.	.	.	24ccc\JJ	.
=26	=26	=26	=26	=26	=26
!LO:TX:a:t=I	!	!LO:TX:a:t=I	!	!	!
2r	.	2r	.	8aa\L)	.
.	.	.	.	(24aa\L	.
.	.	.	.	24gg#X\	.
.	.	.	.	24aa\JJ	.
.	.	.	.	8ff\L)	.
.	.	.	.	(24ff\L	.
.	.	.	.	24een\	.
.	.	.	.	24ff\JJ	.
=27	=27	=27	=27	=27	=27
8r	.	8r	.	4.cc\)	<
*	*	*tuplet	*	*	*
!	!	!LO:TUP:b:problem:klamra łukowa	!	!	!
8En'\L	p	24g/LL	p	.	.
.	.	24a/	.	.	.
.	.	24g/JJ	.	.	.
8F'\	.	8a'/L	.	.	.
.	.	.	.	8qqeen/	.
8G'\J	.	8b-'/J	.	16dd\LL	.
.	.	.	.	16cc\JJ	[[
=28	=28	=28	=28	=28	=28
8F\	.	8a\L	.	8cc\	.
!	!	!LO:TUP:a:problem:klamra łukowa	!	!	!
8r	.	24cc\L	.	8r	.
.	.	24dd\	.	.	.
.	.	24cc\JJ	.	.	.
4r	.	8ff\	.	8r	.
.	.	8r	.	(24ccc\LL	p
.	.	.	.	24bbn\	.
.	.	.	.	24ccc\JJ	.
=29	=29	=29	=29	=29	=29
!LO:TX:a:t=I	!	!LO:TX:a:t=I	!	!	!
2r	.	2r	.	8aa\L)	.
.	.	.	.	(24aa\L	.
.	.	.	.	24gg#X\	.
.	.	.	.	24aa\JJ	.
.	.	.	.	8ff\L	.
.	.	.	.	(24ff\L)	.
.	.	.	.	24een\	.
.	.	.	.	24ff\JJ	.
=30	=30	=30	=30	=30	=30
8r	.	8r	.	4.dd\)	<
!	!	!LO:TX:t=P:problem:przy trioli zamiast cyfry 3 jest 6	!	!	!
8F#X'\L	.	24a/LL	.	.	.
.	.	24b-/	.	.	.
.	.	24a/JJ	.	.	.
8G'\	.	8b-'\L	.	.	.
.	.	.	.	8qqff/	.
8A'\J	.	8cc'\J	.	16ee-X\LL	.
.	.	.	.	16dd\JJ	[[
=31	=31	=31	=31	=31	=31
8G\	.	8b-\L	.	8ddX\	.
!	!	!LO:TUP:a:problem:klamra łukowa	!	!	!
8r	.	24dd\L	.	8r	.
.	.	24ee-\	.	.	.
.	.	24dd\JJ	.	.	.
4r	.	8gg\	.	8r	.
.	.	8r	.	(24ddd\LL	p
.	.	.	.	24ccc#X\	.
.	.	.	.	24ddd\JJ	.
!	!	!	!	!LO:LB:g=original	!
=32	=32	=32	=32	=32	=32
!LO:TX:a:t=I	!	!LO:TX:a:t=I	!	!	!
2r	.	2r	.	8bb-\L)	.
.	.	.	.	(24bb-\L	.
.	.	.	.	24aa\	.
.	.	.	.	24bb-\JJ	.
.	.	.	.	8gg\L)	.
.	.	.	.	(24gg\L	.
.	.	.	.	24ff#X\	.
.	.	.	.	24gg\JJ	.
=33	=33	=33	=33	=33	=33
!	!LO:DY:b:t=F	!	!LO:DY:b:t=F	!	!LO:DY:b:t=F
8C/	f	8G/ 8en	f	24een\LL)	f
.	.	.	.	24gg\	.
.	.	.	.	24ee\	.
8r	.	8r	.	24bb-\	.
.	.	.	.	24gg\	.
.	.	.	.	24ee\JJ	.
!LO:TX:b:i:t=rinf	!	!LO:TX:b:i:t=rinf	!	!	!
(<4D-X\	.	[4g/ 4b-	.	24dd-X\LL	.
.	.	.	.	24ee\	.
.	.	.	.	24gg\	.
.	.	.	.	24bb-\	.
.	.	.	.	24gg\	.
.	.	.	.	24ee\JJ	.
=34	=34	=34	=34	=34	=34
8C/)	.	8g/] 8b-	.	24cc\LL	.
.	.	.	.	24bb-\	.
.	.	.	.	24aa\	.
8r	.	8r	.	24gg\	.
.	.	.	.	24ff\	.
.	.	.	.	24een\JJ	.
8r	.	8r	.	24ddn\LL	.
.	.	.	.	24cc\	.
.	.	.	.	24bn\	.
8En\	.	8c/ 8g	.	24cc\	.
.	.	.	.	24dd\	.
.	.	.	.	24b-X\JJ	.
=35	=35	=35	=35	=35	=35
8F\	.	8c/	.	24a/LL	.
.	.	.	.	24f/	.
.	.	.	.	24g/	.
8r	.	8r	.	24a/	.
.	.	.	.	24b-/	.
.	.	.	.	24cc/JJ	.
4r	.	4r	.	24dd\LL	.
.	.	.	.	24een\	.
.	.	.	.	24ff\	.
.	.	.	.	24gg\	.
.	.	.	.	24aa\	.
.	.	.	.	24bb-\JJ	.
!	!	!LO:LB:g=original	!	!	!
=36	=36	=36	=36	=36	=36
8FF/	.	8f/ 8a	.	24ccc\LL	.
.	.	.	.	24aa\	.
.	.	.	.	24bb-\	.
8r	.	8r	.	24ccc\	.
.	.	.	.	24ddd\	.
.	.	.	.	24eeen\JJ	.
4r	.	4r	.	24fff\LL	.
.	.	.	.	24ccc\	.
.	.	.	.	24bb-\	.
.	.	.	.	24aa\	.
.	.	.	.	24gg\	.
.	.	.	.	24ff\JJ	.
!	!	!	!	!LO:LB:g=original	!
=37	=37	=37	=37	=37	=37
(4C/	p	(4g/	p	24een\LL	p
.	.	.	.	24gg\	.
.	.	.	.	24ee\	.
.	.	.	.	24bb-\	.
.	.	.	.	24gg\	.
.	.	.	.	24ee\JJ	.
4D-X\	>	[4b-\)	.	24dd-X\LL	.
.	.	.	.	24ee\	.
.	.	.	.	24ff\	.
.	.	.	.	24bb-\	.
.	.	.	.	24gg\	.
.	.	.	.	24ee\JJ	.
=38	=38	=38	=38	=38	=38
8C/)	]	8b-\]	.	24cc\LL	.
.	.	.	.	24bb-\	.
.	.	.	.	24aa\	.
8r	.	8r	.	24gg\	.
.	.	.	.	24ff\	.
.	.	.	.	24een\JJ	.
8r	.	8r	.	24ddn\LL	.
.	.	.	.	24cc\	.
.	.	.	.	24bn\	.
8En'\	.	8c'/ 8g	.	24cc\	.
.	.	.	.	24dd\	.
.	.	.	.	24b-X\JJ	.
=39	=39	=39	=39	=39	=39
8F'\	.	8c'/	.	24a/LL	.
.	.	.	.	24f/	.
.	.	.	.	24g/	.
8r	.	8r	.	24a/	.
.	.	.	.	24b-/	.
.	.	.	.	24cc/JJ	.
4r	.	4r	.	24dd\LL	.
.	.	.	.	24een\	.
.	.	.	.	24ff\	.
.	.	.	.	24gg\	.
.	.	.	.	24aa\	.
.	.	.	.	24bb-\JJ	.
=40	=40	=40	=40	=40	=40
8FF/	.	8f/ 8a	.	24ccc\LL	.
.	.	.	.	24aa\	.
.	.	.	.	24bb-\	.
8r	.	8r	.	24ccc\	.
.	.	.	.	24ddd\	.
.	.	.	.	24eeen\JJ	.
4r	.	4r	.	24fff\LL	.
.	.	.	.	24ccc\	.
.	.	.	.	24bb-\	.
.	.	.	.	24aa\	.
.	.	.	.	24gg\	.
.	.	.	.	24ff\JJ	.
!LO:LB:g=original	!	!	!	!LO:LB:g=original	!
=41	=41	=41	=41	=41	=41
!	!	!LO:TX:b:i:t=rinf	!	!	!LO:DY:b:t=F
8C/L	.	16g/LL 16b-	.	24cc\LL	f
.	.	.	.	24een\	.
.	.	16g/ 16b-	.	.	.
.	.	.	.	24gg\	.
8C/	.	16g/ 16b-	.	24ccc\	.
.	.	.	.	24eee-\	.
.	.	16g/JJ 16b-	.	.	.
.	.	.	.	24ccc\JJ	.
8C/	.	16f/LL 16a	.	24fff\LL	.
.	.	.	.	24ccc\	.
.	.	16f/ 16a	.	.	.
.	.	.	.	24bb-\	.
8C/J	.	16f/ 16a	.	24aa\	.
.	.	.	.	24gg\	.
.	.	16f/JJ 16a	.	.	.
.	.	.	.	24ff\JJ	.
=42	=42	=42	=42	=42	=42
*tremolo	*	*	*	*	*
8C/L	.	16g/LL 16b-	.	24cc\LL	.
.	.	.	.	24een\	.
.	.	16g/ 16b-	.	.	.
.	.	.	.	24gg\	.
8C/	.	16g/ 16b-	.	24ccc\	.
.	.	.	.	24eee-\	.
.	.	16g/JJ 16b-	.	.	.
.	.	.	.	24ccc\JJ	.
8C/	.	16f/LL 16a	.	24fff\LL	.
.	.	.	.	24ccc\	.
.	.	16f/ 16a	.	.	.
.	.	.	.	24bb-\	.
8C/J	.	16f/ 16a	.	24aa\	.
.	.	.	.	24gg\	.
.	.	16f/JJ 16a	.	.	.
.	.	.	.	24ff\JJ	.
*Xtremolo	*	*	*	*	*
=43	=43	=43	=43	=43	=43
8C/	.	8g/	.	24cc\LL	.
.	.	.	.	24een\	.
.	.	.	.	24gg\	.
8r	.	8r	.	(24ccc\	.
.	.	.	.	24ggg\)	.
.	.	.	.	24ccc'\JJ	.
4r	.	4r	.	(24ccc\LL	.
.	.	.	.	24ggg\)	.
.	.	.	.	24eee-'\	.
.	.	.	.	(>24ccc\	.
.	.	.	.	24ggg\)	.
.	.	.	.	24eee-'\JJ	.
!	!	!LO:LB:g=original	!	!	!
=44	=44	=44	=44	=44	=44
4CC;/ 4C	<	4G;/ 4en	.	4cccT;<\	.
4r	[	4r	.	4r	.
=45	=45	=45	=45	=45	=45
!	!	!	!	!LO:TX:b:i:t=dol	!
.	.	.	.	8qqcc/	.
8FF'/	p	8r	.	(4.ccc\	.
8r	.	(24f/LL	p	.	.
.	.	24g/	.	.	.
.	.	24f/JJ	.	.	.
8r	.	8a/)	.	.	.
8F'\	.	8r	.	8aa'\)	.
=46	=46	=46	=46	=46	=46
8FF/	.	8r	.	(4.ff\	.
*	*	*Xtuplet	*	*	*
!	!	!LO:TUP:a:problem:klamra łukowa	!	!	!
8r	.	24a\LL	.	.	.
.	.	24b-\	.	.	.
.	.	24a\JJ	.	.	.
8r	.	8cc\	.	.	.
8F\	.	8r	.	8aa'\)	.
=47	=47	=47	=47	=47	=47
8En\	.	8r	.	(4.cc\	.
*	*	*tuplet	*	*	*
8r	.	(<24g/LL	.	.	.
.	.	24a/	.	.	.
.	.	24g/JJ	.	.	.
8r	.	8b-\L)	.	.	.
8C/	.	8b-`\J	.	8een'\)	.
!	!	!	!	!LO:LB:g=original	!
=48	=48	=48	=48	=48	=48
8F\	.	8a/	.	8ff\L	.
*	*	*	*	*tuplet	*
!	!	!	!	!LO:TUP:a:problem:klamra łukowa	!
8r	.	8r	.	24cc\L	.
.	.	.	.	24dd\	.
.	.	.	.	24cc\JJ	.
*	*	*	*	*Xtuplet	*
4r	.	4r	.	(24ff\LL	.
.	.	.	.	24gg\	.
.	.	.	.	24ff\)	.
.	.	.	.	(24aa\	.
.	.	.	.	24bb-\	.
.	.	.	.	24aa\JJ)	.
=49	=49	=49	=49	=49	=49
8FF/	.	8r	.	(4.ccc\	>
8r	.	(24f/LL	.	.	.
.	.	24g/	.	.	.
.	.	24f/JJ	.	.	.
8r	.	8a/)	.	.	.
8F\	.	8r	.	8aa'\)	]]
=50	=50	=50	=50	=50	=50
.	.	.	.	8qqdd/	>
8BB-/	.	8r	.	(4.ddd\	.
8r	.	(24b-\LL	.	.	.
.	.	24cc\	.	.	.
.	.	24b-\JJ	.	.	.
8r	.	8dd\)	.	.	.
8B-\	.	8r	.	8bb-'\)	]]
=51	=51	=51	=51	=51	=51
4c\	.	(4een\	.	4.gg\	<
4d\	.	4ff\)	.	.	.
.	.	.	.	8qqbbn/	.
.	.	.	.	(16.aa\LL	.
.	.	.	.	32gg\JJk)	[[
=52	=52	=52	=52	=52	=52
.	.	.	.	16qqff#X/LL	.
.	.	.	.	16qqgg/	.
.	.	.	.	16qqaa/JJ	.
4c;\	.	4een;\	.	4gg;<\	.
4r	.	4r	.	4r	.
=53	=53	=53	=53	=53	=53
[2FF/	p	8r	.	4.cc\	.
.	.	(8A/L	.	.	.
.	.	8c/)	.	.	.
.	.	8c'/J	.	(24ff\LL	.
.	.	.	.	16qqeen/LL	.
.	.	.	.	16qqff/JJ	.
.	.	.	.	24cc\)	.
.	.	.	.	24a\JJ	.
!	!	!LO:LB:g=original	!	!	!
=54	=54	=54	=54	=54	=54
2FF/]	.	8r	.	(4.f/	.
.	.	(8A/L	.	.	.
.	.	8c/)	.	.	.
.	.	8c'/J	.	16a/LL	.
.	.	.	.	16cc/JJ)	.
=55	=55	=55	=55	=55	=55
.	.	.	.	(8qqcc/	.
(4EEn/	.	8r	.	4.c/)	.
.	.	(8G/L	.	.	.
4CC/)	.	8B-/)	.	.	.
.	.	.	.	(16qqe-/LL	.
.	.	.	.	16qqd/	.
.	.	.	.	16qqc/	.
.	.	.	.	16qqd/JJ	.
.	.	8B-'/J	.	8en/	.
!LO:LB:g=original	!	!	!	!	!
=56	=56	=56	=56	=56	=56
8FF/	.	(8A/L	.	4f/)	.
8r	.	8c/	.	.	.
4r	.	8f/	.	4r	.
.	.	8e-X/J)	.	.	.
=57	=57	=57	=57	=57	=57
.	.	.	.	8qqf/	>
[2BB-/	.	(8d/L	.	(4.ff\	.
.	.	8f/	.	.	.
.	.	8b-/	.	.	.
.	.	8f/J)	.	8dd\)	]]
!	!	!	!	!LO:LB:g=original	!
=58	=58	=58	=58	=58	=58
4BB-/]	.	4d/	.	4.b-\	<
8r	.	8r	.	.	.
.	.	.	.	8qqeen/	.
8BB-/	.	(16d/LL	.	24dd\LL	.
.	.	.	.	8qqcc/	.
.	.	.	.	24b-\	[
.	.	16B-/JJ)	.	.	.
.	.	.	.	8qqa/	.
.	.	.	.	24g\JJ	.
=59	=59	=59	=59	=59	=59
.	.	.	.	8qqg/	.
8C/L	.	16r	.	8f/	.
.	.	16A/LL	.	.	.
8C/	.	16A/	.	4f/	.
.	.	16A/JJ	.	.	.
8CC/	.	16r	.	.	.
.	.	16B-/LL	.	.	.
.	.	.	.	8qqa/	.
8CC/J	.	16B-/	.	8g/	.
.	.	16B-/JJ	.	.	.
=60	=60	=60	=60	=60	=60
8FF/	.	8A/	.	8f/L	p
*	*	*	*	*tuplet	*
!	!	!	!	!LO:TUP:b:problem:klamra łukowa	!
8r	.	8r	.	24cc/L	.
.	.	.	.	24dd/	.
.	.	.	.	24cc/JJ	.
!	!	!	!	!LO:TUP:b:problem:klamra łukowa	!
4r	.	4r	.	24b-/LL	.
.	.	.	.	24cc/	.
.	.	.	.	24b-/	.
.	.	.	.	24g/	.
.	.	.	.	24a/	.
.	.	.	.	24g/JJ	.
=61	=61	=61	=61	=61	=61
*	*	*	*	*Xtuplet	*
!LO:TX:a:t=3	!	!LO:TX:a:t=I	!	!LO:TUP:a:problem:klamra łukowa 	!
!LO:N:vis=0	!	!	!	!	!
1r	.	2r	.	24a\LL	.
.	.	.	.	24b-\	.
.	.	.	.	24a\	.
.	.	.	.	24ff\	.
.	.	.	.	24gg\	.
.	.	.	.	24ff\JJ	.
!	!	!	!	!LO:TUP:a:problem:klamra łukowa 	!
.	.	.	.	24een\LL	.
.	.	.	.	24ff\	.
.	.	.	.	24ee\	.
.	.	.	.	24gg\	.
.	.	.	.	24aa\	.
.	.	.	.	24gg\JJ	.
=62	=62	=62	=62	=62	=62
!	!	!	!	!LO:TUP:a:problem:klamra łukowa 	!LO:HP:b:t=cres
.	.	8r	.	24ff\LL	<
.	.	.	.	24gg\	.
.	.	.	.	24ff\	.
!	!	!LO:TUP:a:problem:klamra łukowa	!	!	!
.	.	24cc\LL	p	24aa\	.
.	.	24dd\	.	24bb-\	.
.	.	24cc\JJ	.	24aa\JJ	.
*	*	*Xtuplet	*	*	*
!	!	!LO:TUP:b:problem:klamra łukowa	!	!LO:TUP:a:problem:klamra łukowa 	!
.	.	24b-/LL	.	24gg\LL	.
.	.	24cc/	.	24aa\	.
.	.	24b-/	.	24gg\	.
.	.	24g/	.	24een\	.
.	.	24a/	.	24ff\	.
.	.	24g/JJ	.	24ee\JJ	.
!	!	!LO:LB:g=original	!	!	!
=63	=63	=63	=63	=63	=63
!	!	!LO:TUP:a:problem:klamra łukowa	!	!LO:TUP:a:problem:klamra łukowa 	!
2r	.	24a\LL	.	24ff\LL	.
.	.	24b-\	.	24gg\	.
.	.	24a\	.	24ff\	.
.	.	24ff\	.	24aa\	.
.	.	24gg\	.	24bb-\	.
.	.	24ff\JJ	.	24aa\JJ	.
!	!	!LO:TUP:a:problem:klamra łukowa	!LO:HP:b:t=cres	!LO:TUP:a:problem:klamra łukowa 	!
.	.	24een\LL	<	24gg\LL	.
.	.	24ff\	.	24aa\	.
.	.	24ee\	.	24gg\	.
.	.	24gg\	.	24bb-\	.
.	.	24aa\	.	24ccc\	.
.	.	24gg\JJ	.	24bb-\JJ	.
!	!	!	!	!LO:LB:g=original	!
=64	=64	=64	=64	=64	=64
!	!	!	!LO:DY:b:t=F	!LO:TUP:a:problem:klamra łukowa 	!LO:DY:b:t=F
8r	.	16ff\KL	f	24aa\LL	f
.	.	.	.	24bb-\	.
.	.	8cc\	.	.	.
.	.	.	.	24aa\	.
(8F\L	.	.	.	24ccc\	.
.	.	.	.	24ddd\	.
.	.	16cc\Jk	.	.	.
.	.	.	.	24ccc\JJ	.
!	!	!	!	!LO:TUP:a:problem:klamra łukowa 	!
8G\)	.	16cc\KL	.	24bb-\LL	.
.	.	.	.	24gg\	.
.	.	8cc\	.	.	.
.	.	.	.	24bb-\	.
8C'\J	.	.	.	24eeno\	.
.	.	.	.	24gg\	.
.	.	16cc\Jk	.	.	.
.	.	.	.	24ee\JJ	.
=65	=65	=65	=65	=65	=65
!	!	!	!	!LO:TUP:a:problem:klamra łukowa 	!
8r	.	16cc\KL	.	24aa\LL	.
.	.	.	.	24bb-\	.
.	.	8cc\	.	.	.
.	.	.	.	24aa\	.
(8F\L	.	.	.	24ccc\	.
.	.	.	.	24ddd\	.
.	.	16cc\Jk	.	.	.
.	.	.	.	24ccc\JJ	.
!	!	!	!	!LO:TUP:a:problem:klamra łukowa 	!
8G\)	.	16cc\KL	.	24bb-\LL	.
.	.	.	.	24gg\	.
.	.	8cc\	.	.	.
.	.	.	.	24bb-\	.
8C'\J	.	.	.	24een\	.
.	.	.	.	24gg\	.
.	.	16cc\Jk	.	.	.
.	.	.	.	24ee\JJ	.
=66	=66	=66	=66	=66	=66
!	!	!	!	!LO:TUP:a:problem:klamra łukowa 	!
8F\	.	8cc\	.	24ff\LL 24aa	p
.	.	.	.	24gg\ 24bb-	.
.	.	.	.	24ff\ 24aa	.
8r	.	8r	.	24een\ 24gg	.
.	.	.	.	24ff\ 24aa	.
.	.	.	.	24ee\JJ 24gg	.
!	!	!	!	!LO:TUP:a:problem:klamra łukowa 	!
4r	.	4r	.	24dd\LL 24ff	.
.	.	.	.	24een\ 24gg	.
!	!	!	!	!LO:TX:b:i:t=rinf	!
.	.	.	.	24dd\ 24ff	.
.	.	.	.	24cc#X\ 24ee	.
.	.	.	.	24dd\ 24ff	.
.	.	.	.	24cc#\JJ 24ee	.
=67	=67	=67	=67	=67	=67
!LO:TX:a:t=2	!	!LO:TX:a:t=2	!	!LO:TUP:a:problem:klamra łukowa 	!
!LO:N:vis=0	!	!LO:N:vis=0	!	!	!
1r	.	1r	.	24dd\LL 24ff	p
.	.	.	.	24een\ 24gg	.
.	.	.	.	24dd\ 24ff	.
.	.	.	.	24ccn\ 24ee	.
.	.	.	.	24dd\ 24ff	.
.	.	.	.	24cc\JJ 24ee	.
!	!	!	!	!LO:TUP:a:problem:klamra łukowa 	!
.	.	.	.	24b-\LL 24dd	.
.	.	.	.	24cc\ 24ee	.
!	!	!	!	!LO:TX:b:i:t=rinf	!
.	.	.	.	24b-\ 24dd	.
.	.	.	.	24a\ 24cc	.
.	.	.	.	24b-\ 24dd	.
.	.	.	.	24a\JJ 24cc	.
!	!	!	!	!LO:DY:b:t=F	!
=68	=68	=68	=68	=68	=68
!	!	!	!	!LO:TUP:a:problem:klamra łukowa 	!
.	.	.	.	24b-\LL 24dd	p
.	.	.	.	24cc\ 24een	.
.	.	.	.	24b-\ 24dd	.
.	.	.	.	24a\ 24cc	.
.	.	.	.	24b-\ 24dd	.
.	.	.	.	24a\JJ 24cc	.
.	.	.	.	24g/LL 24b-	.
.	.	.	.	24a/ 24cc	.
!	!	!	!	!LO:TX:b:i:t=rinf	!
.	.	.	.	24g/ 24b-	.
.	.	.	.	24f#X/ 24a	.
.	.	.	.	24g/ 24b-	.
.	.	.	.	24f#/JJ 24a	.
=69	=69	=69	=69	=69	=69
!	!	!	!LO:HP:a	!LO:TX:b:i:t=rinf	!
8CC/L	<	8G/L 8en	<	16g/LL 16b-	.
.	.	.	.	16f#X/ 16a	.
8C/	.	8G/ 8e	.	16g/ 16b-	.
.	.	.	.	16f#/JJ 16a	.
8C/	.	8G/ 8e	.	16g/LL 16b-	.
.	.	.	.	16f#/ 16a	.
8D-X/J	.	8G/J 8e	[[	16g/ 16b-	.
.	.	.	.	16f#/JJ 16a	.
=70	=70	=70	=70	=70	=70
*	*	*	*	*^	*
4C;/	.	4G;/ 4en	.	4b-T;/ 4gT	4gT/yy	.
4r	[	4r	.	4r	4ryy	.
*	*	*	*	*v	*v	*
=71	=71	=71	=71	=71	=71
*	*	*tuplet	*	*	*
!	!	!	!	!LO:TX:a:i:t=dol	!
8FF/	p	(24A/LL	p	(4.cc\	.
.	.	24B-/	.	.	.
.	.	24A/	.	.	.
8r	.	24c/	.	.	.
.	.	24d/	.	.	.
.	.	24c/JJ	.	.	.
8r	.	8A/)	.	.	.
8F\	.	8r	.	8a'\)	.
!	!	!LO:LB:g=original	!	!	!
=72	=72	=72	=72	=72	=72
8BB-/	.	(<24d/LL	.	(4.ff\	.
.	.	24e-X/	.	.	.
.	.	24d/	.	.	.
8r	.	24f/	.	.	.
.	.	24g/	.	.	.
.	.	24f/JJ	.	.	.
8r	.	8b-\)	.	.	.
8BB-/	.	8r	.	8dd'\)	.
=73	=73	=73	=73	=73	=73
*	*	*Xtuplet	*	*	*
4AA/	.	(24f/LL	.	4.cc\	.
.	.	24g/	.	.	.
.	.	24f/	.	.	.
.	.	24en/	.	.	.
.	.	24f/	.	.	.
.	.	24e/JJ	.	.	.
4BB-/	.	8d/)	.	.	.
.	.	.	.	8qqeen/	.
.	.	8r	.	24dd\LL	.
.	.	.	.	8qqcc/	.
.	.	.	.	24b-\	.
.	.	.	.	8qqa/	.
.	.	.	.	24g\JJ	.
!LO:LB:g=original	!	!	!	!	!
=74	=74	=74	=74	=74	=74
.	.	.	.	8qqg/	.
8C/	.	16r	.	8f/	.
.	.	16A/LL	.	.	.
8r	.	16A/	.	4f/	.
.	.	16A/JJ	.	.	.
8C/L	.	16r	.	.	.
.	.	16G/LL	.	.	.
.	.	.	.	8qqa/	.
8C/J	.	16B-/	.	8g/	.
.	.	16B-/JJ	.	.	.
=75	=75	=75	=75	=75	=75
8FF/	.	8A/	.	8f/L	.
*	*	*	*	*tuplet	*
!	!	!	!	!LO:TUP:b:problem:klamra łukowa	!
8r	.	8r	.	24c/L	.
.	.	.	.	24d/	.
.	.	.	.	24c/JJ	.
*	*	*	*	*Xtuplet	*
4r	.	4r	.	24f/LL	.
.	.	.	.	24g/	.
.	.	.	.	24f/	.
.	.	.	.	24a/	.
.	.	.	.	24b-/	.
.	.	.	.	24a/JJ	.
!	!	!	!	!LO:LB:g=original	!
=76	=76	=76	=76	=76	=76
8r	.	8r	.	4.cc/	>
*	*	*tuplet	*	*	*
!	!	!LO:TUP:b:problem:klamra łukowa	!	!	!
(8F\L	.	24a/LL	.	.	.
.	.	24b-/	.	.	.
.	.	24a/JJ	.	.	.
8G\)	.	8b-/L	.	.	.
8C'\J	.	8g'/J	.	16b-/LL	.
.	.	.	.	16g/JJ	]]
=77	=77	=77	=77	=77	=77
8F\	.	8a/	.	8f\L	.
8r	.	8r	.	24cc\L	.
.	.	.	.	24dd\	.
.	.	.	.	24cc\JJ	.
4r	.	4r	.	24ff\LL	.
.	.	.	.	24gg\	.
.	.	.	.	24ff\	.
.	.	.	.	24aa\	.
.	.	.	.	24bb-\	.
.	.	.	.	24aa\JJ	.
=78	=78	=78	=78	=78	=78
8r	.	8r	.	4.ccc\	>
!	!	!LO:TUP:b:problem:klamra łukowa	!	!	!
(8F\L	.	24a/LL	.	.	.
.	.	24b-/	.	.	.
.	.	24a/JJ	.	.	.
8G\)	.	8b-/L	.	.	.
8C'\J	.	8g'/J	.	16bb-\LL	.
.	.	.	.	16gg\JJ	]]
!	!	!LO:LB:g=original	!	!	!
=79	=79	=79	=79	=79	=79
8F\L	.	8a/L	.	24ff\LL	.
.	.	.	.	24gg\	.
.	.	.	.	24ff\	.
8A\	.	8a/	.	24aa\	.
.	.	.	.	24bb-\	.
.	.	.	.	24aa\JJ	.
8F\	.	8f/	.	24ff\LL	.
.	.	.	.	24gg\	.
.	.	.	.	24ff\	.
8C\J	.	8c/J	.	24cc\	.
.	.	.	.	24dd\	.
.	.	.	.	24cc\JJ	.
=80	=80	=80	=80	=80	=80
!	!	!	!	!LO:TX:b:i:t=rinf	!
8F\L	.	8f/L	.	24ff\LL	.
.	.	.	.	24gg\	.
.	.	.	.	24ff\	.
8A\	.	8a/	.	24aa\	.
.	.	.	.	24bb-\	.
.	.	.	.	24aa\JJ	.
8F\	.	8f/	.	24ff\LL	.
.	.	.	.	24gg\	.
.	.	.	.	24ff\	.
8C\J	.	8c/J	.	24cc\	.
.	.	.	.	24dd\	.
.	.	.	.	24cc\JJ	.
=81	=81	=81	=81	=81	=81
!	!	!	!	!	!LO:DY:b:t=F
8F\	.	8f/L	.	24ff\LL	f
.	.	.	.	24gg\	.
.	.	.	.	24ff\	.
8r	.	8cc/	.	24aa\	.
.	.	.	.	24bb-\	.
.	.	.	.	24aa\JJ	.
8FF/L	.	8a/	.	24ff\LL	.
.	.	.	.	24gg\	.
.	.	.	.	24ff\	.
8F\J	.	8cc/J	.	24aa\	.
.	.	.	.	24bb-\	.
.	.	.	.	24aa\JJ	.
=	=	=	=	=	=
8FF/L	.	8a/L	.	4ff\	.
8F\	.	8a/	.	.	.
8F\J	.	8a/J	.	8r	.
!	!	!	!	!LO:LB:g=original	!
=82:|!	=82:|!	=82:|!	=82:|!	=82:|!	=82:|!
!	!	!	!	!LO:TUP:a:problem:klamra łukowa	!
8r	.	8r	.	24ff\LL	.
.	.	.	.	24gg\	.
.	.	.	.	24ff\JJ	.
=83	=83	=83	=83	=83	=83
*	*	*Xtuplet	*	*	*
!	!LO:DY:b:t=F	!	!LO:DY:b:t=F	!	!LO:DY:b:t=F
8BB-/	f	(24d/LL	f	4.aa-X\	f
.	.	24e-X/	.	.	.
.	.	24d/	.	.	.
8r	.	24f/	.	.	.
.	.	24g/	.	.	.
.	.	24f/JJ	.	.	.
8r	.	8d/)	.	.	.
!	!	!	!	!LO:TUP:a:problem:klamra łukowa	!
8B-\	.	8r	.	24ff\LL	.
.	.	.	.	24gg\	.
.	.	.	.	24ff\JJ	.
=84	=84	=84	=84	=84	=84
8BB-/	.	(24d/LL	.	4.aa-X\	.
.	.	24e-/	.	.	.
.	.	24d/	.	.	.
8r	.	24f/	.	.	.
.	.	24g/	.	.	.
.	.	24f/JJ	.	.	.
8r	.	8d/)	.	.	.
!	!	!	!	!LO:TUP:a:problem:klamra łukowa	!
8B-\	.	8r	.	24ff\LL	.
.	.	.	.	24gg\	.
.	.	.	.	24ff\JJ	.
=85	=85	=85	=85	=85	=85
8A-X\L	.	8a-X/L	.	(24aa-X\LL	.
.	.	.	.	24bb-\	.
.	.	.	.	24aa-\)	.
8F\	.	8f/	.	(24ff\	.
.	.	.	.	24gg\	.
.	.	.	.	24ff\JJ)	.
8D\	.	8d/	.	(24cc\LL	.
.	.	.	.	24dd\	.
.	.	.	.	24cc\)	.
8F\J	.	8f/J	.	(24ff\	.
.	.	.	.	24gg\	.
.	.	.	.	24ff\JJ)	.
!LO:LB:g=original	!	!	!	!	!
=86	=86	=86	=86	=86	=86
8A-X\L	.	8a-X/L	.	(24aa-X\LL	.
.	.	.	.	24bb-\	.
.	.	.	.	24aa-\)	.
8F\	.	8f/	.	(24ff\	.
.	.	.	.	24gg\	.
.	.	.	.	24ff\JJ)	.
8D\	.	8d/	.	(24cc\LL	.
.	.	.	.	24dd\	.
.	.	.	.	24cc\)	.
8BB-\J	.	8B-/J	.	(24b-\	.
.	.	.	.	24cc\	.
.	.	.	.	24b-\JJ)	.
!	!	!LO:LB:g=original	!	!	!
=87	=87	=87	=87	=87	=87
2E-\	.	(16e-/LL	.	4e-/ 4ee-	.
.	.	16B-/)	.	.	.
.	.	(16G/	.	.	.
.	.	16B-/JJ)	.	.	.
.	.	(16G/LL	p	8r	.
.	.	16B-/)	.	.	.
!	!	!	!	!LO:TX:b:i:t=dol	!
.	.	(16G/	.	16gg\LL	.
.	.	16B-/JJ)	.	16aa-X\JJ	.
=88	=88	=88	=88	=88	=88
[2EE-/	p	(16e-/LL	.	(16bb-\LL	.
.	.	16g/)	.	16ccc\)	.
.	.	(16b-/	.	16bb-'\	.
.	.	16g/JJ)	.	16aan'\JJ	.
.	.	(16e-/LL	.	8bb-'\L	.
.	.	16g/)	.	.	.
.	.	(16e-/	.	8bb-'\J	.
.	.	16g/JJ)	.	.	.
=89	=89	=89	=89	=89	=89
8EE-/L]	.	(16e-/LL	.	4.bb-\	.
.	.	16g/)	.	.	.
8BB-'/	.	(16b-/	.	.	.
.	.	16g/JJ)	.	.	.
8GG'/	.	(16e-/LL	.	.	.
.	.	16g/)	.	.	.
8EE-'/J	.	(16e-/	.	16gg\LL	.
.	.	16g/JJ)	.	16bb-\JJ	.
!	!	!	!	!LO:PB:g=original	!
=90	=90	=90	=90	=90	=90
2BB-/	.	(16d/LL	.	(16aa-X\LL	.
.	.	16f/)	.	16gg\)	.
.	.	(16b-/	.	16ff'\	.
.	.	16f/JJ)	.	16ee-'\JJ	.
.	.	(16a-X/LL	.	16dd\LL	.
.	.	16f/)	.	16b-\	.
.	.	(16a-/	.	16cc\	.
.	.	16f/JJ)	.	16dd\JJ	.
=91	=91	=91	=91	=91	=91
8EE-/	.	8g/	.	16ee-\LL	.
.	.	.	.	16dd\	.
8r	.	8r	.	16ee-\	.
.	.	.	.	16ff\JJ	.
4r	.	16e-/LL	.	16gg\LL	.
.	.	16d/	.	16ff\	.
.	.	16e-/	.	16gg\	.
.	.	16f/JJ	.	16aa-X\JJ	.
=92	=92	=92	=92	=92	=92
!	!	!	!	!	!LO:HP:b:t=cres
2E-\	.	16g/LL	.	16bb-\LL	<
.	.	16a-X/	.	16ccc\	.
.	.	16g/	.	16bb-\	.
.	.	16f#X/JJ	.	16aan\JJ	.
.	.	8g/	.	8bb-\L	.
*	*	*	*	*tuplet	*
!	!	!	!	!LO:TUP:a:problem:klamra łukowa	!
.	.	8r	.	24bb-\L	.
.	.	.	.	24ccc\	.
.	.	.	.	24bb-\JJ	.
!	!	!LO:LB:g=original	!	!	!
=93	=93	=93	=93	=93	=93
!	!	!	!	!LO:TX:b:i:t=rinf	!
8r	.	(<24g/LL	.	4.ddd-X\	.
!	!	!LO:TX:b:i:t=rinf	!	!	!
.	.	24a-X/	.	.	.
.	.	24g/	.	.	.
!LO:TX:t=P:problem:mixed beam	!	!	!	!	!
!LO:TX:b:i:t=rinf	!	!	!	!	!
8E-\L	.	24b-/	.	.	.
.	.	24cc/	.	.	.
.	.	24b-/JJ	.	.	.
8EE-/J	.	8dd-X\)	.	.	.
!	!	!	!	!LO:TUP:a:problem:klamra łukowa	!
8r	.	8r	.	24bb-\LL	>
.	.	.	.	24ccc\	.
.	.	.	.	24bb-\JJ	]]
=94	=94	=94	=94	=94	=94
!	!	!	!	!LO:TX:b:i:t=rinf	!
8r	.	(<24g/LL	.	4.ddd-X\	.
.	.	24a-X/	.	.	.
.	.	24g/	.	.	.
!LO:TX:t=P:problem:mixed beam	!	!	!	!	!
8E-\L	.	24b-/	.	.	.
.	.	24cc/	.	.	.
.	.	24b-/JJ	.	.	.
8EE-/J	.	8dd-X\)	.	.	.
!	!	!	!	!LO:TUP:a:problem:klamra łukowa	!
8r	.	8r	.	24bb-\LL	>
.	.	.	.	24ccc\	.
.	.	.	.	24bb-\JJ	]]
=95	=95	=95	=95	=95	=95
*	*	*	*	*Xtuplet	*
!	!LO:DY:b:t=F	!	!LO:DY:b:t=F	!	!LO:DY:b:t=F
8E-\L	f	8dd-X/L	f	(24ddd-X\LL	f
.	.	.	.	24ccc\	.
.	.	.	.	24ddd-\)	.
8B-\	.	8b-/	.	(24bb-\	.
.	.	.	.	24aan\	.
.	.	.	.	24bb-\JJ)	.
8G\	.	8g/	.	(24gg\LL	.
.	.	.	.	24ff\	.
.	.	.	.	24gg\)	.
8E-\J	.	8e-/J	.	(24ee-\	.
.	.	.	.	24ddn\	.
.	.	.	.	24ee-\JJ)	.
=96	=96	=96	=96	=96	=96
4A-X\	.	(16a-X/LL	.	4aa-X\	.
.	.	16e-/)	.	.	.
.	.	(16c/	.	.	.
.	.	16e-/JJ)	.	.	.
4r	.	(16c/LL	p	8r	.
.	.	16e-/	.	.	.
.	.	16c/	.	16cc\LL	p
.	.	16e-/JJ)	.	16dd-X\JJ	.
!	!	!	!	!LO:LB:g=original	!
=97	=97	=97	=97	=97	=97
[2AA-X/	.	(16A-X/LL	.	16ee-\LL	.
.	.	16c/)	.	16ff\	.
.	.	16e-'/	.	16ee-\	.
.	.	16c'/JJ	.	16ddn\JJ	.
.	.	(16A-/LL	.	8ee-\L	.
.	.	16c/)	.	.	.
.	.	(16A-/	.	8ee-\J	.
.	.	16c/JJ)	.	.	.
=98	=98	=98	=98	=98	=98
8AA-/L]	.	(16A-X/LL	.	4.ee-\	.
.	.	16c/)	.	.	.
8E-/	.	16e-'/	.	.	.
.	.	16c'/JJ	.	.	.
8C/	.	(16A-/LL	.	.	.
.	.	16c/)	.	.	.
8AA-yX/J	.	(16A-/	.	16cc\LL	.
.	.	16c/JJ)	.	16ee-\JJ	.
!	!	!LO:LB:g=original	!	!	!
=99	=99	=99	=99	=99	=99
(2EE-/	.	(16G/LL	.	16dd-X\LL	.
.	.	16B-/)	.	16cc\	.
.	.	16e-'/	.	16b-\	.
.	.	16B-'/JJ	.	16a-X\JJ	.
.	.	(16G/LL	.	16g/LL	.
.	.	16B-/)	.	16e-/	.
.	.	(16G/	.	16f/	.
.	.	16B-/JJ)	.	16g/JJ	.
=100	=100	=100	=100	=100	=100
8AA-X/)	.	(24A-X/LL	.	4a-X\	.
.	.	24B-/	.	.	.
.	.	24A-/	.	.	.
8r	.	24c/	.	.	.
.	.	24d-X/	.	.	.
.	.	24c/JJ	.	.	.
8r	.	8e-/L)	.	8r	.
*	*	*	*	*tuplet	*
!	!	!	!	!LO:TUP:a:problem:klamra łukowa	!
8A\	.	8e-'/J	.	24cc\LL	.
.	.	.	.	24dd-X\	.
.	.	.	.	24cc\JJ	.
=101	=101	=101	=101	=101	=101
*	*	*	*	*Xtuplet	*
!	!	!	!	!LO:TUP:a:problem:klamra łukowa 	!
8G\L	.	16e-/KL	.	24b-\LL	.
.	.	.	.	24cc\	.
.	.	8e-/	.	.	.
.	.	.	.	24b-\	.
8B-\	.	.	.	24dd-X\	.
.	.	.	.	24ee-\	.
.	.	16e-/Jk	.	.	.
.	.	.	.	24dd-\JJ	.
!	!	!	!	!LO:TUP:a:problem:klamra łukowa 	!
8A-X\	.	16e-/KL	.	24cc\LL	.
.	.	.	.	24dd-\	.
.	.	8e-/	.	.	.
.	.	.	.	24cc\	.
8c\J	.	.	.	24ee-\	.
.	.	.	.	24ff\	.
.	.	16e-/Jk	.	.	.
.	.	.	.	24ee-\JJ	.
=102	=102	=102	=102	=102	=102
8B-\L	.	16e-/KL	.	16dd-X\KL	.
.	.	8e-/	.	8bb-\	.
8d-X\	.	.	.	.	.
.	.	16e-/Jk	.	16gg\Jk	.
8c\	.	16e-/KL	.	24aa-X`\LL	.
.	.	.	.	24gg`\	.
.	.	8e-/	.	.	.
.	.	.	.	24ff`\	.
8A-X\J	.	.	.	24ee-`\	.
.	.	.	.	24dd-`\	.
.	.	16e-/Jk	.	.	.
.	.	.	.	24cc`\JJ	.
!LO:LB:g=original	!	!	!	!	!
=103	=103	=103	=103	=103	=103
!	!	!	!	!LO:TUP:a:problem:klamra łukowa 	!
8G\L	.	16e-/KL	.	24b-\LL	.
.	.	.	.	24cc\	.
.	.	8e-/	.	.	.
.	.	.	.	24b-\	.
8B-\	.	.	.	24dd-X\	.
.	.	.	.	24ee-\	.
.	.	16e-/Jk	.	.	.
.	.	.	.	24dd-\JJ	.
!	!	!	!	!LO:TUP:a:problem:klamra łukowa 	!
8A-X\	.	16e-/KL	.	24cc\LL	.
.	.	.	.	24dd-\	.
.	.	8e-/	.	.	.
.	.	.	.	24cc\	.
8c\J	.	.	.	24ee-\	.
.	.	.	.	24ff\	.
.	.	16e-/Jk	.	.	.
.	.	.	.	24ee-\JJ	.
!	!	!	!	!LO:LB:g=original	!
=104	=104	=104	=104	=104	=104
!	!	!	!	!LO:TX:b:i:t=rinf	!
8B-\L	.	16e-/KL	.	16b-\KL	.
.	.	8e-/	.	8bb-\	.
8d-X\	.	.	.	.	.
.	.	16e-/Jk	.	16gg\Jk	.
8c\J	.	8e-/	.	8aa-X\L	.
*	*	*	*	*tuplet	*
!	!	!	!	!LO:TUP:a:problem:klamra łukowa 	!
8r	.	8r	.	24ff\L	.
.	.	.	.	24een\	.
.	.	.	.	24ff\JJ	.
=105	=105	=105	=105	=105	=105
*	*	*	*	*Xtuplet	*
[2C/	.	8g/L	p	24een\LL	.
.	.	.	.	24ff\	.
.	.	.	.	24ee\	.
.	.	8b-/	.	24gg\	.
.	.	.	.	24aa-X\	.
.	.	.	.	24gg\JJ	.
!	!	!	!	!LO:TUP:a:problem:klamra łukowa 	!
.	.	8a-X/	.	24ff\LL	.
.	.	.	.	24gg\	.
.	.	.	.	24ff\	.
.	.	8cc/J	.	24aa-\	.
.	.	.	.	24bb-\	.
.	.	.	.	24aa-\JJ	.
!	!	!LO:LB:g=original	!	!	!
=106	=106	=106	=106	=106	=106
!	!	!	!	!LO:TX:b:i:t=rinf	!
4C/]	.	16b-\KL	.	16b-\KL	.
.	.	8dd-X\	.	8bb-\	.
.	.	16b-\Jk	.	16gg\Jk	.
8F\	.	8a-X/	.	24ff\LL	.
.	.	.	.	24aa-X\	.
.	.	.	.	24bb-\	.
8r	.	8r	.	24ccc\	.
.	.	.	.	24bb-\	.
.	.	.	.	24aa-\JJ	.
=107	=107	=107	=107	=107	=107
8BB-/L	.	8dd-X\L	.	(24gg\LL	.
.	.	.	.	24aa-X\	.
.	.	.	.	24gg\)	.
8BB-/	.	8d/J	.	(24bb-\	.
.	.	.	.	24ccc\	.
.	.	.	.	24bb-\JJ)	.
(8BB-/	.	(8d/L	.	24ddd-X`\LL	.
.	.	.	.	24ccc`\	.
.	.	.	.	24bb-`\	.
8BBn/J)	.	8dn/J)	.	24aa-`\	.
.	.	.	.	24gg`\	.
.	.	.	.	24ff`\JJ	.
=108	=108	=108	=108	=108	=108
[2C/	.	16en'/LL	.	16een\KL	.
.	.	16g'/	.	8ccc\	.
.	.	16e'/	.	.	.
.	.	16g'/JJ	.	16ccc\Jk	.
.	.	16f/LL	.	4bbnt\	.
.	.	16a-X/	.	.	.
.	.	16f/	.	.	.
.	.	16a-/JJ	.	.	.
!	!	!	!	!LO:LB:g=original	!
=109	=109	=109	=109	=109	=109
!	!	!	!LO:DY:b:t=F	!	!
2C/_	.	16en/LL	f	16ccc\KL	.
.	.	16g/	.	8cc\	.
.	.	16e/	.	.	.
.	.	16g/JJ	.	16cc\Jk	.
.	.	16f/LL	.	4bnt\	.
.	.	16a-X/	.	.	.
.	.	16f/	.	.	.
.	.	16a-/JJ	.	.	.
=110	=110	=110	=110	=110	=110
8C'/L]	.	8g'/L	.	8cc/L	.
8CC'/J	.	8G'/J 8en	.	8en`/J 8cc	.
4r	.	4r	.	8r	.
.	.	.	.	16a-X/LL	p
.	.	.	.	16b-X/JJ	.
=111	=111	=111	=111	=111	=111
!LO:TX:a:t=I	!	!	!	!	!
2r	.	4r	.	(16cc\LL	.
.	.	.	.	16dd-X\	.
.	.	.	.	16cc\)	.
.	.	.	.	16bn`\JJ	.
.	.	8r	.	8cc\L	.
.	.	16A-X'/LL	p	8cc\J	.
.	.	16B-'/JJ	.	.	.
=112	=112	=112	=112	=112	=112
.	.	.	.	8qqcc/	.
4r	.	(16c/LL	.	8aa-X\	.
.	.	16d-X/)	.	.	.
.	.	16c/	.	4aa-\	.
.	.	16Bn'/JJ	.	.	.
8r	.	8c/L	.	.	.
16AA-X'/LL	.	8c/J	.	8gg\	.
16BB-'/JJ	.	.	.	.	.
!	!	!LO:PB:g=original	!	!	!
=113	=113	=113	=113	=113	=113
.	.	8qqc/	.	.	.
(16C/LL	.	8a-X/	.	8ff\	.
16D-X/)	.	.	.	.	.
!	!	!LO:TX:b:i:t=rinf	!	!	!
16C/	.	4a-/	.	4ff\	.
16BBn'/JJ	.	.	.	.	.
8C'/L	.	.	.	.	.
8C'/J	.	8g/	.	8een\	.
=114	=114	=114	=114	=114	=114
8qqC/	.	.	.	.	.
8A-X\	.	(16f/LL	.	8ccc\	.
.	.	16g/	.	.	.
!LO:TX:b:i:t=rinf	!	!	!	!	!
4A-\	.	16f/)	.	4ccc\	.
.	.	16en'/JJ	.	.	.
.	.	8f/L	.	.	.
8G\	.	8g/J	.	8bb-\	.
=115	=115	=115	=115	=115	=115
4F\	.	8cc\	.	(16aa-X\LL	.
.	.	.	.	16bb-\	.
.	.	4cc\	.	16aa-\)	.
.	.	.	.	16gg`\JJ	.
[4En'\	.	.	.	8aa-\L	.
.	.	8b-\	.	8gg\J	.
=116	=116	=116	=116	=116	=116
8E/L]	.	2a-XT/	<[	2ffT\	<[
16D-X/L	.	.	.	.	.
16C/JJ	.	.	.	.	.
8BBn/L	.	.	.	.	.
8BB/J	.	.	.	.	.
!LO:LB:g=original	!	!	!	!LO:LB:g=original	!
=117	=117	=117	=117	=117	=117
!	!LO:DY:b:t=F	!	!LO:DY:b:t=F	!	!LO:DY:b:t=F
8C/	f	8g/	f	24een\LL	f
.	.	.	.	24gg\	.
.	.	.	.	24ee\	.
8r	.	8r	.	24bb-\	.
.	.	.	.	24gg\	.
.	.	.	.	24ee\JJ	.
(<4D-X\	.	[4g/ 4b-	.	24dd-X\LL	.
.	.	.	.	24ee\	.
.	.	.	.	24gg\	.
.	.	.	.	24bb-\	.
.	.	.	.	24gg\	.
.	.	.	.	24ee\JJ	.
=118	=118	=118	=118	=118	=118
8C/)	.	8g/] 8b-	.	24cc\LL	.
.	.	.	.	24bb-\	.
.	.	.	.	24aa-X\	.
8r	.	8r	.	24gg\	.
.	.	.	.	24ff\	.
.	.	.	.	24een\JJ	.
8r	.	8r	.	24dd-X\LL	.
.	.	.	.	24cc\	.
.	.	.	.	24bn\	.
8En\	.	8g/	.	24cc\	.
.	.	.	.	24dd-\	.
.	.	.	.	24b-X\JJ	.
=119	=119	=119	=119	=119	=119
8F\	.	8c/	.	24a-X/LL	.
.	.	.	.	24f/	.
.	.	.	.	24g/	.
8r	.	8r	.	24a-/	.
.	.	.	.	24b-/	.
.	.	.	.	24cc/JJ	.
4r	.	4r	.	24dd-X\LL	.
.	.	.	.	24een\	.
.	.	.	.	24ff\	.
.	.	.	.	24gg\	.
.	.	.	.	24aa\	.
.	.	.	.	24bb-\JJ	.
=120	=120	=120	=120	=120	=120
!LO:TX:a:t=I	!	!LO:TX:a:t=I	!	!	!
2r	.	2r	.	24ccc\LL	.
.	.	.	.	24aa-X\	.
.	.	.	.	24bb-\	.
.	.	.	.	24ccc\	.
.	.	.	.	24ddd-X\	.
.	.	.	.	24eeen\JJ	.
.	.	.	.	24fff\LL	.
.	.	.	.	24ccc\	.
.	.	.	.	24bb-\	.
.	.	.	.	24aa-\	.
.	.	.	.	24gg\	.
.	.	.	.	24ff\JJ	.
!	!	!	!	!LO:LB:g=original	!
=121	=121	=121	=121	=121	=121
(<4C/	.	[2g/ 2b-	p	24een\LL	.
.	.	.	.	24gg\	.
.	.	.	.	24ee\	.
.	.	.	.	24bb-\	.
.	.	.	.	24gg\	.
.	.	.	.	24ee\JJ	.
(<4D-X\)	.	.	.	24dd-X\LL	.
.	.	.	.	24ee\	.
.	.	.	.	24gg\	.
.	.	.	.	24bb-\	.
.	.	.	.	24gg\	.
.	.	.	.	24ee\JJ	.
=122	=122	=122	=122	=122	=122
8C/)	.	8g/] 8b-	.	24cc\LL	.
.	.	.	.	24bb-\	.
.	.	.	.	24aa-X\	.
8r	.	8r	.	24gg\	.
.	.	.	.	24ff\	.
.	.	.	.	24ee-\JJ	.
8r	.	8r	.	24dd-X\LL	.
.	.	.	.	24cc\	.
.	.	.	.	24bn\	.
8En\	.	8g/	.	24cc\	.
.	.	.	.	24dd-\	.
.	.	.	.	24b\JJ	.
=123	=123	=123	=123	=123	=123
8F\	.	8c/	.	24a-X/LL	.
.	.	.	.	24f/	.
.	.	.	.	24g/	.
8r	.	8r	.	24a-/	.
.	.	.	.	24b-/	.
.	.	.	.	24cc/JJ	.
4r	.	4r	.	24dd-X\LL	.
.	.	.	.	24een\	.
.	.	.	.	24ff\	.
.	.	.	.	24gg\	.
.	.	.	.	24aa\	.
.	.	.	.	24bb-\JJ	.
=124	=124	=124	=124	=124	=124
!LO:TX:a:t=2	!	!LO:TX:a:t=I	!	!	!
!LO:N:vis=0	!	!	!	!	!
1r	.	2r	.	24ccc\LL	.
.	.	.	.	24aa-X\	.
.	.	.	.	24bb-\	.
.	.	.	.	24ccc\	.
.	.	.	.	24ddd-X\	.
.	.	.	.	24eeen\JJ	.
.	.	.	.	24fff\LL	.
.	.	.	.	24ccc\	.
.	.	.	.	24bb-\	.
.	.	.	.	24aa-\	.
.	.	.	.	24gg\	.
.	.	.	.	24ff\JJ	.
!	!	!	!	!LO:LB:g=original	!
=125	=125	=125	=125	=125	=125
!	!	!	!	!LO:TX:b:i:t=dol	!
.	.	16b-'\LL	pp	[4gg-X\	.
.	.	16dd-X'\	.	.	.
.	.	16b-'\	.	.	.
.	.	16dd-'\JJ	.	.	.
.	.	16b-'\LL	.	16gg-\LL]	.
.	.	16dd-'\	.	(16bb-\	.
.	.	16b-'\	.	16aa-X\	.
.	.	16dd-'\JJ	.	16gg-\JJ)	.
!	!	!LO:LB:g=original	!	!	!
=126	=126	=126	=126	=126	=126
8r	.	16b-\LL	.	(8ff\L	.
.	.	16cc\	.	.	.
8c'\L	p	16b-\	.	8eent\	.
.	.	16cc\JJ	.	.	.
8f'\	.	16a-X\LL	.	8ff\J)	.
.	.	16cc\	.	.	.
8F'\J	.	16a-\	.	8r	.
.	.	16cc\JJ	.	.	.
=127	=127	=127	=127	=127	=127
!LO:TX:a:t=I	!	!	!	!	!
2r	.	16b-\LL	.	[4gg-X\	.
.	.	16dd-X\	.	.	.
.	.	16b-\	.	.	.
.	.	16dd-\JJ	.	.	.
.	.	16b-\LL	.	16gg-\LL]	.
.	.	16dd-\	.	(16bb-\	.
.	.	16b-\	.	16aa-X\	.
.	.	16dd-\JJ	.	16gg-\JJ)	.
=128	=128	=128	=128	=128	=128
8r	.	16b-\LL	.	(8ff\L	.
.	.	16cc\	.	.	.
8c\L	.	16b-\	.	8eent\	.
.	.	16cc\JJ	.	.	.
8f\	.	16a-X\LL	.	8ff\J)	.
.	.	16cc\	.	.	.
8F\J	.	16a-\	.	8r	.
.	.	16cc\JJ	.	.	.
=129	=129	=129	=129	=129	=129
!LO:TX:a:t=I	!	!	!	!	!
2r	.	16a-X\LL	.	[4ff\	.
.	.	16cc-X\	.	.	.
.	.	16a-\	.	.	.
.	.	16cc-\JJ	.	.	.
.	.	16a-\LL	.	16ff\LL]	.
.	.	16cc-\	.	(16aa-X\	.
.	.	16a-\	.	16gg-X\	.
.	.	16cc-\JJ	.	16ff\JJ)	.
=130	=130	=130	=130	=130	=130
8r	.	16f/LL	.	(8ee-\L	.
.	.	16b-/	.	.	.
8B-\L	.	16a/	.	8ddnt\	.
.	.	16b-/JJ	.	.	.
8G-X\	.	16e-/LL	.	8ee-\J)	.
.	.	16b-/	.	.	.
8D\J	.	16g-X/	.	8r	.
.	.	16b-/JJ	.	.	.
=131	=131	=131	=131	=131	=131
!LO:TX:t=P:problem:mixed beam	!	!	!	!LO:TX:b:i:t=rinf	!
.	.	.	.	8qqee-/	.
8E-\L	.	16g-X\LL	.	4.gg-X\	.
.	.	16b-\	.	.	.
8EE-/	.	16ee-\	.	.	.
.	.	16b-\JJ	.	.	.
8E-\	.	8g-/L	.	.	.
!	!	!	!	!LO:TUP:a:problem:klamra łukowa	!
8En\J	.	8gn/J	.	24ee-\LL	.
.	.	.	.	24cc\	.
.	.	.	.	24b-\JJ	.
!	!	!LO:LB:g=original	!	!	!
=132	=132	=132	=132	=132	=132
!	!	!	!	!	!LO:DY:b:t=F
8F\	.	8c/	.	8an\L	f
!	!	!	!	!LO:TUP:a:problem:klamra łukowa 	!
8r	.	8r	.	24ff\L	.
.	.	.	.	24een\	.
.	.	.	.	24ff\JJ	.
4r	.	4r	.	(24dd-X\LL	.
.	.	.	.	24cc\	.
.	.	.	.	24dd-\)	.
.	.	.	.	(24b-\	.
.	.	.	.	24a\	.
.	.	.	.	24b-\JJ)	.
!	!	!	!	!LO:LB:g=original	!
=133	=133	=133	=133	=133	=133
8r	.	8r	.	8a`/L	.
!	!LO:DY:b:t=F	!	!LO:DY:b:t=F	!LO:TUP:a:problem:klamra łukowa 	!
8F\L	f	8f/L	f	24f/L	.
.	.	.	.	24en/	.
.	.	.	.	24f/JJ	.
8D-X\	.	8d-X/	.	(24d-X/LL	.
.	.	.	.	24c/	.
.	.	.	.	24d-/)	.
8BB-\J	.	8B-/J	.	(24B-/	.
.	.	.	.	24A/	.
.	.	.	.	24B-/JJ)	.
=134	=134	=134	=134	=134	=134
2FF;/	.	2An;/	.	2A;/ 2f	.
=135	=135	=135	=135	=135	=135
!	!	!	!	!LO:TX:b:i:t=dol	!
2BB-/	.	8r	.	(4.ff\	.
.	.	(8d/L	p	.	.
.	.	8f/)	.	.	.
.	.	8f'/J	.	8dd\)	.
!LO:LB:g=original	!	!	!	!	!
=136	=136	=136	=136	=136	=136
2BB-/	.	8r	.	(4.b-\	.
.	.	(8d/L	.	.	.
.	.	8f/)	.	.	.
.	.	8f'/J	.	8dd\)	.
=137	=137	=137	=137	=137	=137
8AA/	.	8r	.	(4.f/	.
8r	.	(8c/L	.	.	.
8FF/	.	8e-/)	.	.	.
8r	.	8e-'/J	.	8a/)	.
=138	=138	=138	=138	=138	=138
8BB-/	.	8d/	.	8b-/L	.
*	*	*	*	*tuplet	*
!	!	!	!	!LO:TUP:b:problem:klamra łukowa 	!
8r	.	8r	.	24f/L	.
.	.	.	.	24g/	.
.	.	.	.	24f/JJ	.
*	*	*	*	*Xtuplet	*
4r	.	4r	.	(24b-\LL	.
.	.	.	.	24cc\	.
.	.	.	.	24b-\)	.
.	.	.	.	(24dd\	.
.	.	.	.	24ee-\	.
.	.	.	.	24dd\JJ)	.
=139	=139	=139	=139	=139	=139
8BB-/	.	8r	.	(4.ff\	>
*	*	*tuplet	*	*	*
8r	.	(24B-/LL	.	.	.
.	.	24c/	.	.	.
.	.	24B-/JJ	.	.	.
8r	.	8d/)	.	.	.
8B-\	.	8r	.	8dd\)	]]
=140	=140	=140	=140	=140	=140
.	.	.	.	8qqg	.
8E-\	.	8r	.	(4.gg\	>
*	*	*Xtuplet	*	*	*
8r	.	(24e-/LL	.	.	.
.	.	24f/	.	.	.
.	.	24e-/JJ	.	.	.
8r	.	8g/)	.	.	.
8C/	.	8r	.	8ee-\)	]]
!	!	!LO:LB:g=original	!	!	!
=141	=141	=141	=141	=141	=141
4F\	.	(<4a/	<	4.cc\	<
4G\	.	4b-\	.	.	.
.	.	.	.	8qqeen/	.
.	.	.	.	16.dd\LL	.
.	.	.	.	32cc\JJk	.
=142	=142	=142	=142	=142	=142
.	.	.	.	16qqbn/LL	.
.	.	.	.	16qqcc/	.
.	.	.	.	16qqdd/JJ	.
4F;\	.	4a;/)	.	4cc;\	.
4r	.	4r	[	4r	[
!	!	!	!	!LO:LB:g=original	!
=143	=143	=143	=143	=143	=143
!LO:TX:b:i:t=rinf	!	!	!	!	!
[2BB-/	.	8r	.	[4ff\	.
!	!	!LO:TX:b:i:t=rinf	!	!	!
.	.	(8f/L	.	.	.
!	!	!	!	!LO:TX:b:i:t=rinf	!
.	.	8d/	.	16ff\LL]	.
.	.	.	.	(16bb-\	.
.	.	8f/J)	.	16ff\)	.
.	.	.	.	16dd\JJ	.
=144	=144	=144	=144	=144	=144
2BB-/]	.	(8d/L	.	4.b-\	.
.	.	8f/	.	.	.
.	.	8d/	.	.	.
.	.	8f/J)	.	(16dd\LL	.
.	.	.	.	16ff\JJ	.
=145	=145	=145	=145	=145	=145
.	.	.	.	8qqff/)	.
8F\	.	8c'/L	.	4.f/	.
8r	.	(8f/	.	.	.
8FF/	.	8d/	.	.	.
.	.	.	.	(16qqa/LL	.
.	.	.	.	16qqg/	.
.	.	.	.	16qqf/JJ	.
8r	.	8f/J)	.	16g/LL	.
.	.	.	.	16a/JJ	.
=146	=146	=146	=146	=146	=146
8BB-/	.	8d'/L	.	4b-/)	.
8r	.	(8f/	.	.	.
4r	.	8b-/	.	4r	.
.	.	8a-X/J)	.	.	.
=147	=147	=147	=147	=147	=147
!	!	!	!	!LO:TX:b:i:t=rinf	!
2EE-/	.	8g'/L	.	(4.bb-\	.
.	.	(8G/	.	.	.
.	.	8B-/	.	.	.
.	.	8e-/J)	.	8gg\)	.
=148	=148	=148	=148	=148	=148
2E-\	.	8r	.	4.ee-\	>
.	.	(8g/L	.	.	.
.	.	8e-/	.	.	.
!	!	!	!	!LO:TUP:a:problem:klamra łukowa	!
.	.	8g/J)	.	24gg\LL	.
.	.	.	.	24ee-\	.
.	.	.	.	24cc\JJ	.
=149	=149	=149	=149	=149	=149
.	.	.	.	8qqcc/	.
8F\L	.	16r	.	8b-\	.
.	.	16d/LL	p	.	.
8F\	.	16d/	.	4b-\	.
.	.	16d/JJ	.	.	.
8FF/	.	16r	.	.	.
.	.	16d/LL	.	.	.
.	.	.	.	8qqdd/	.
8FF/J	.	16d/	.	8cc\	]]
.	.	16d/JJ	.	.	.
=150	=150	=150	=150	=150	=150
8BB-/	.	8d/	.	8b-/L	p
!	!	!	!	!LO:TUP:b:problem:klamra łukowa 	!
8r	.	8r	.	24f/L	.
.	.	.	.	24g/	.
.	.	.	.	24f/JJ	.
4r	.	4r	.	(24e-/LL	.
.	.	.	.	24f/	.
.	.	.	.	24e-/)	.
.	.	.	.	(24c/	.
.	.	.	.	24d/	.
.	.	.	.	24c/JJ)	.
!	!	!LO:LB:g=original	!	!LO:LB:g=original	!
=151	=151	=151	=151	=151	=151
!LO:TX:a:t=3	!	!LO:TX:a:t=I	!	!LO:TUP:b:problem:klamra łukowa	!
!LO:N:vis=0	!	!	!	!	!
1r	.	2r	.	24d/LL	.
.	.	.	.	24e-/	.
.	.	.	.	24d/	.
.	.	.	.	24b-/	.
.	.	.	.	24cc/	.
.	.	.	.	24b-/JJ	.
!	!	!	!	!LO:TUP:b:problem:klamra łukowa	!
.	.	.	.	24a/LL	.
.	.	.	.	24b-/	.
.	.	.	.	24a/	.
.	.	.	.	24cc/	.
.	.	.	.	24dd/	.
.	.	.	.	24cc/JJ	.
=152	=152	=152	=152	=152	=152
!	!	!	!	!LO:TUP:a:problem:klamra łukowa	!
.	.	8r	.	24b-\LL	.
.	.	.	.	24cc\	.
.	.	.	.	24b-\	.
*	*	*tuplet	*	*	*
!	!	!LO:TUP:b:problem:klamra łukowa	!	!	!LO:HP:a:t=cres
.	.	24f/LL	p	24dd\	<
.	.	24g/	.	24ee-\	.
.	.	24f/JJ	.	24dd\JJ	.
*	*	*Xtuplet	*	*	*
!	!	!LO:TUP:b:problem:klamra łukowa	!	!LO:TUP:a:problem:klamra łukowa	!
.	.	24e-/LL	.	24cc\LL	.
.	.	24f/	.	24dd\	.
.	.	24e-/	.	24cc\	.
.	.	24c/	.	24a\	.
.	.	24d/	.	24b-\	.
.	.	24c/JJ	.	24a\JJ	.
=153	=153	=153	=153	=153	=153
!	!	!LO:TUP:b:problem:klamra łukowa	!	!LO:TUP:a:problem:klamra łukowa	!
2r	.	24d/LL	.	24b-\LL	.
.	.	24e-/	.	24cc\	.
.	.	24d/	.	24b-\	.
.	.	24b-/	.	24dd\	.
.	.	24cc/	.	24ee-\	.
.	.	24b-/JJ	.	24dd\JJ	.
!	!	!LO:TUP:b:problem:klamra łukowa	!	!LO:TUP:a:problem:klamra łukowa	!
.	.	24a\LL	.	24cc\LL	.
.	.	24b-\	.	24dd\	.
.	.	24a\	.	24cc\	.
.	.	24cc\	.	24ee-\	.
.	.	24dd\	.	24ff\	.
.	.	24cc\JJ	.	24ee-\JJ	.
=154	=154	=154	=154	=154	=154
!	!	!	!	!LO:TUP:a:problem:klamra łukowa	!LO:DY:b:t=F
8r	.	16b-/KL	.	24dd\LL	f
.	.	.	.	24ee-\	.
!	!	!	!LO:HP:b:t=cres	!	!
.	.	8f/	<	.	.
.	.	.	.	24dd\	.
8B-\L	.	.	.	24ff\	.
.	.	.	.	24gg\	.
.	.	16f/Jk	.	.	.
.	.	.	.	24ff\JJ	.
8c\	.	16f/KL	.	(24ee-\LL	.
.	.	.	.	24cc\	.
.	.	8f/	.	.	.
.	.	.	.	24ee-\)	.
8F\J	.	.	.	(24a\	.
.	.	.	.	24b-\	.
.	.	16f/Jk	.	.	.
.	.	.	.	24a\JJ)	.
!	!	!	!	!LO:LB:g=original	!
=155	=155	=155	=155	=155	=155
!	!	!	!LO:DY:b:t=F	!LO:TUP:a:problem:klamra łukowa	!
8r	.	16f/KL	f	24dd\LL	.
.	.	.	.	24ee-\	.
.	.	8f/	.	.	.
.	.	.	.	24dd\	.
8BB-/L	.	.	.	24ff\	.
.	.	.	.	24gg\	.
.	.	16f/Jk	.	.	.
.	.	.	.	24ff\JJ	.
8C/	.	16f/KL	.	(24ee-\LL	.
.	.	.	.	24cc\	.
.	.	8f/	.	.	.
.	.	.	.	24ee-\)	.
8FF/J	.	.	.	(24a\	.
.	.	.	.	24b-\	.
.	.	16f/Jk	.	.	.
.	.	.	.	24a\JJ)	.
=156	=156	=156	=156	=156	=156
!	!	!	!	!LO:TUP:a:problem:klamra łukowa	!
8BB-/	.	8f/	.	24b-\LL 24dd	p
.	.	.	.	24cc\ 24ee-	.
.	.	.	.	24b-\ 24dd	.
8r	.	8r	.	24a\ 24cc	.
.	.	.	.	24b-\ 24dd	.
.	.	.	.	24a\JJ 24cc	.
!	!	!	!	!LO:TX:b:i:t=rinf	!
!	!	!	!	!LO:TUP:b:problem:klamra łukowa	!
4r	.	4r	.	24g/LL 24b-	.
.	.	.	.	24a/ 24cc	.
.	.	.	.	24g/ 24b-	.
.	.	.	.	24f#X/ 24a	.
.	.	.	.	24g/ 24b-	.
.	.	.	.	24f#/JJ 24a	.
!	!	!LO:LB:g=original	!	!	!
=157	=157	=157	=157	=157	=157
!LO:TX:a:t=2	!	!LO:TX:a:t=2	!	!LO:TUP:a:problem:klamra łukowa	!
!LO:N:vis=0	!	!LO:N:vis=0	!	!	!
1r	.	1r	.	24g/LL 24b-	p
.	.	.	.	24a/ 24cc	.
.	.	.	.	24g/ 24b-	.
.	.	.	.	24fn/ 24a	.
.	.	.	.	24g/ 24b-	.
.	.	.	.	24f/JJ 24a	.
!	!	!	!	!LO:TX:b:i:t=rinf	!
!	!	!	!	!LO:TUP:b:problem:klamra łukowa	!
.	.	.	.	24e-/LL 24g	.
.	.	.	.	24f/ 24a	.
.	.	.	.	24e-/ 24g	.
.	.	.	.	24d/ 24f	.
.	.	.	.	24e-/ 24g	.
.	.	.	.	24d/JJ 24f	.
!	!	!	!	!LO:LB:g=original	!
=158	=158	=158	=158	=158	=158
!	!	!	!	!LO:TUP:a:problem:klamra łukowa	!
.	.	.	.	24e-/LL 24g	.
.	.	.	.	24f/ 24a	.
.	.	.	.	24e-/ 24g	.
.	.	.	.	24d/ 24f	.
.	.	.	.	24e-/ 24g	.
.	.	.	.	24d/JJ 24f	.
!	!	!	!	!LO:TX:a:i:t=rinf	!
!	!	!	!	!LO:TUP:b:problem:klamra łukowa	!
.	.	.	.	24c/LL 24e-	.
.	.	.	.	24d/ 24f	.
.	.	.	.	24c/ 24e-	.
.	.	.	.	24B-/ 24d	.
.	.	.	.	24c/ 24e-	.
.	.	.	.	24B-/JJ 24d	.
!LO:LB:g=original	!	!	!	!	!
=159	=159	=159	=159	=159	=159
!	!	!	!	!	!LO:DY:b:t=F
.	.	.	.	8qqd/ 8qqf	f
!	!	!	!LO:HP:a	!	!
8FF/L	<	8A/L	<	(16c/LL 16e-	.
.	.	.	.	16Bn/) 16d	.
8F\	.	8A/	.	(16c/ 16e-	.
.	.	.	.	16B/JJ) 16d	.
(8F\	.	8A/	.	(16c/LL 16e-	.
.	.	.	.	16B/) 16d	.
8G-X\J)	[[	8A/J	[[	(16c/ 16e-	.
.	.	.	.	16B/JJ) 16d	.
=160	=160	=160	=160	=160	=160
2F;\	.	2A;/	.	2cT;/ 2e-	.
=161	=161	=161	=161	=161	=161
8BB-/	.	8r	.	(4.f/	p
8r	.	(24B-/LL	.	.	.
.	.	24c/	.	.	.
.	.	24B-/JJ	.	.	.
8r	.	8d/)	.	.	.
8BB-/	.	8r	.	8d/)	.
=162	=162	=162	=162	=162	=162
.	.	.	.	8qqd/	.
8E-\	.	8r	.	4.b-/	.
8r	.	(24G/LL	.	.	.
.	.	24A/	.	.	.
.	.	24G/JJ	.	.	.
8r	.	8B-/)	.	.	.
!	!	!	!	!LO:TUP:b:problem:klamra łukowa	!
8E-\	.	8r	.	24a/LL	.
.	.	.	.	24b-/	.
.	.	.	.	24g/JJ	.
=163	=163	=163	=163	=163	=163
4D\	.	(24B-/LL	.	4.f/	.
.	.	24c/	.	.	.
.	.	24B-/	.	.	.
.	.	24A/	.	.	.
.	.	24B-/	.	.	.
.	.	24A/JJ	.	.	.
4E-\	.	16G/)	.	.	.
.	.	16r	.	.	.
.	.	8r	.	24g/LL	.
.	.	.	.	24e-/	.
.	.	.	.	24c/JJ	.
=164	=164	=164	=164	=164	=164
.	.	.	.	8qqc/	.
8F\L	p	16r	.	8B-/	.
.	.	16d/LL	p	.	.
8F\	.	16d/	.	4B-/	.
.	.	16d/JJ	.	.	.
8FF/	.	16r	.	.	.
.	.	16d/LL	.	.	.
.	.	.	.	8qqd/	.
8FF/J	.	16d/	.	8c/	.
.	.	16d/JJ	.	.	.
!	!	!	!	!LO:LB:g=original	!
=165	=165	=165	=165	=165	=165
8BB-/	.	8d/	.	8B-/L	.
!	!	!	!	!LO:TUP:b:problem:klamra łukowa  	!
8r	.	8r	.	24f/L	.
.	.	.	.	24g/	.
.	.	.	.	24f/JJ	.
4r	.	4r	.	(24b-\LL	.
.	.	.	.	24cc\	.
.	.	.	.	24b-\)	.
.	.	.	.	(24dd\	.
.	.	.	.	24ee-\	.
.	.	.	.	24dd\JJ)	.
!	!	!LO:LB:g=original	!	!	!
=166	=166	=166	=166	=166	=166
8r	.	8r	.	(4.ff\	>
(8BB-/L	.	(24d/LL	p	.	.
.	.	24e-/	.	.	.
.	.	24d/JJ	.	.	.
8C/)	.	8e-/L)	.	.	.
8FF'/J	.	8c'/J	.	16ee-\LL	.
.	.	.	.	16cc\JJ)	]]
=167	=167	=167	=167	=167	=167
8BB-/	.	8d/	.	8g\L	.
!	!	!	!	!LO:TUP:b:problem:klamra łukowa	!
8r	.	8r	.	24ff\L	.
.	.	.	.	24gg\	.
.	.	.	.	24ff\JJ	.
4r	.	4r	.	(24bb-\LL	.
.	.	.	.	24ccc\	.
.	.	.	.	24bb-\)	.
.	.	.	.	(24ddd\	.
.	.	.	.	24eee-\	.
.	.	.	.	24ddd\JJ)	.
=168	=168	=168	=168	=168	=168
8r	.	8r	.	(<4.fff\	>
(8B-\L	.	(24dd\LL	.	.	.
.	.	24ee-\	.	.	.
.	.	24dd\JJ	.	.	.
8c\)	.	8ee-\L)	.	.	.
8F'\J	.	8cc'\J	.	16eee-\LL	.
.	.	.	.	16ccc\JJ)	]]
=169	=169	=169	=169	=169	=169
8B-\L	.	8b-/L	.	(24bb-\LL	.
.	.	.	.	24ccc\	.
.	.	.	.	24bb-\)	.
!LO:TX:b:i:t=rinf	!	!LO:TX:b:i:t=rinf	!	!	!LO:HP:b:t=cres
8d\	.	8dd/	.	(24ddd\	<
.	.	.	.	24eee-\	.
.	.	.	.	24ddd\JJ)	.
8B-\	.	8b-/	.	(24bb-\LL	.
.	.	.	.	24ccc\	.
.	.	.	.	24bb-\)	.
8F\J	.	8f/J	.	(24ff\	.
.	.	.	.	24gg\	.
.	.	.	.	24ff\JJ)	.
=170	=170	=170	=170	=170	=170
!	!	!	!	!	!LO:HP:b:t=cres
8B-\L	.	8b-/L	.	(24bb-\LL	<
.	.	.	.	24ccc\	.
.	.	.	.	24bb-\)	.
8d\	.	8dd/	.	(24ddd\	.
.	.	.	.	24eee-\	.
!	!	!	!	!	!LO:HP:b:t=cen
.	.	.	.	24ddd\JJ)	<
8B-\	.	8b-/	.	24bb-\LL	.
.	.	.	.	24ccc\	.
.	.	.	.	24bb-\	.
8F\J	.	8f/J	.	24ff\	.
.	.	.	.	24gg\	.
!	!	!	!	!	!LO:HP:b:t=do
.	.	.	.	24ff\JJ	<
!	!	!	!	!LO:LB:g=original	!
=171	=171	=171	=171	=171	=171
!	!LO:DY:b:t=F	!	!LO:DY:b:t=F	!	!
8B-\	f	8b-/L	f	24bb-\LL	.
.	.	.	.	24ccc\	.
.	.	.	.	24bb-\	.
8r	.	8f/	.	24ddd\	.
.	.	.	.	24eee-\	.
.	.	.	.	24ddd\JJ	.
8BB-/L	.	8d/	.	24bb-\LL	.
.	.	.	.	24ccc\	.
.	.	.	.	24bb-\	.
8B-\J	.	8f/J	.	24ddd\	.
.	.	.	.	24eee-\	.
.	.	.	.	24ddd\JJ	.
=172	=172	=172	=172	=172	=172
16BB-\LL	.	16d/LL	.	8bb-\	.
16B-\	.	16d/	.	.	.
!	!	!	!	!LO:N:vis=16	!
16F\	.	16f/	.	8r	.
16D\JJ	.	16b-/JJ	.	.	.
!	!	!	!	!	!LO:DY:b:t=F
8BB-/	.	8dd\	.	(16bb-\LL	f
.	.	.	.	32ccc\L	.
.	.	.	.	32ddd\	.
8r	.	8r	.	32eee-\	.
.	.	.	.	32fff\	.
.	.	.	.	32ggg\	.
.	.	.	.	32aaa\JJJ	.
=173	=173	=173	=173	=173	=173
8BB-/	.	8f/ 8dd	.	8bbb-\)	.
8r	.	8r	.	8r	.
8B-\L	.	8f/L 8dd	.	8d/L 8b-	.
8BB-/J	.	8f/J 8dd	.	8d/J 8b- 8bb-	.
=174	=174	=174	=174	=174	=174
4BB-/	.	4f/ 4dd	.	4B-/ 4d	.
4r	.	4r	.	4r	.
==	==	==	==	==	==
*-	*-	*-	*-	*-	*-
!!!system-decoration: [(s1,s2,s3)]
!!!RDF**kern: > = above
!!!RDF**kern: < = below
!!!ENC: Marta Opryszak
!!!END: 2022-05-23
!!!ENC: Natalia Wrzos
!!!END: 2022-07-02
